img/svg/social/twitter.svg

<svg width="19" height="16" viewBox="0 0 19 16" fill="none" xmlns="http://www.w3.org/2000/svg">
<path d="M18.3572 2.43095C17.6688 2.7369 16.9421 2.92812 16.1772 3.04285C16.9421 2.58392 17.554 1.85728 17.8217 0.97767C17.0951 1.39835 16.292 1.70431 15.4124 1.89553C14.724 1.16889 13.7296 0.709961 12.6588 0.709961C10.5936 0.709961 8.91087 2.3927 8.91087 4.45788C8.91087 4.76383 8.94912 5.03154 9.0256 5.29925C5.92783 5.14628 3.13601 3.65476 1.26205 1.36011C0.956102 1.93377 0.764882 2.54568 0.764882 3.23407C0.764882 4.53437 1.41503 5.68169 2.44762 6.37009C1.83572 6.33184 1.26205 6.17887 0.726638 5.91116V5.9494C0.726638 7.78512 2.02694 9.31488 3.74792 9.65908C3.44197 9.73557 3.09777 9.77381 2.75357 9.77381C2.52411 9.77381 2.2564 9.73557 2.02694 9.69732C2.52411 11.1888 3.9009 12.2979 5.54539 12.2979C4.24509 13.2923 2.63884 13.9042 0.879614 13.9042C0.573661 13.9042 0.267709 13.9042 0 13.8659C1.68274 14.9368 3.63319 15.5487 5.77486 15.5487C12.697 15.5487 16.4832 9.81205 16.4832 4.84032C16.4832 4.68735 16.4832 4.49613 16.4832 4.34315C17.2098 3.84598 17.86 3.19583 18.3572 2.43095Z" fill="white"/>
</svg>

<svg width="19" height="16" fill="none" xmlns="http://www.w3.org/2000/svg"><path d="M18.357 2.431a8.383 8.383 0 0 1-2.18.612c.765-.46 1.377-1.186 1.645-2.065-.727.42-1.53.726-2.41.918A3.812 3.812 0 0 0 12.66.71 3.754 3.754 0 0 0 8.91 4.458c0 .306.038.574.115.841A10.715 10.715 0 0 1 1.262 1.36C.956 1.934.765 2.546.765 3.234c0 1.3.65 2.448 1.683 3.136a4.425 4.425 0 0 1-1.721-.459v.038c0 1.836 1.3 3.366 3.02 3.71-.305.077-.65.115-.993.115-.23 0-.498-.038-.727-.077.497 1.492 1.874 2.6 3.518 2.6-1.3.995-2.906 1.607-4.665 1.607-.306 0-.612 0-.88-.038a10.642 10.642 0 0 0 5.775 1.683c6.922 0 10.708-5.737 10.708-10.709v-.497a6.869 6.869 0 0 0 1.874-1.912Z" fill="#fff"/></svg>
